public/reviews/25.svg

<svg width="662" height="155" viewBox="0 0 662 155" fill="none" xmlns="http://www.w3.org/2000/svg">
<path d="M462.499 109V84.7H474.559V88.78H467.869V94.96H469.009C470.549 94.96 471.849 95.21 472.909 95.71C473.989 96.21 474.809 96.98 475.369 98.02C475.929 99.04 476.209 100.36 476.209 101.98C476.209 103.46 476.009 104.66 475.609 105.58C475.229 106.5 474.689 107.21 473.989 107.71C473.289 108.21 472.469 108.55 471.529 108.73C470.609 108.91 469.609 109 468.529 109H462.499ZM467.869 105.49H468.559C469.239 105.49 469.779 105.36 470.179 105.1C470.579 104.84 470.859 104.44 471.019 103.9C471.179 103.36 471.249 102.68 471.229 101.86C471.209 100.96 471.019 100.21 470.659 99.61C470.299 98.99 469.579 98.68 468.499 98.68H467.869V105.49ZM479.021 109V84.7H489.941V88.36H484.391V94.39H488.621V98.11H484.391V105.37H490.001V109H479.021ZM498.619 109.45C496.919 109.45 495.579 109.13 494.599 108.49C493.639 107.85 492.949 106.96 492.529 105.82C492.129 104.66 491.929 103.33 491.929 101.83V100.96H496.969C496.969 101 496.969 101.12 496.969 101.32C496.969 101.52 496.969 101.71 496.969 101.89C496.969 103.09 497.089 103.95 497.329 104.47C497.569 104.97 498.029 105.22 498.709 105.22C499.169 105.22 499.509 105.1 499.729 104.86C499.969 104.62 500.129 104.27 500.209 103.81C500.309 103.33 500.359 102.73 500.359 102.01C500.359 100.79 500.179 99.87 499.819 99.25C499.459 98.61 498.709 98.28 497.569 98.26C497.549 98.24 497.459 98.23 497.299 98.23C497.159 98.23 496.989 98.23 496.789 98.23C496.589 98.23 496.399 98.23 496.219 98.23V94.96C496.359 94.96 496.499 94.96 496.639 94.96C496.779 94.96 496.919 94.96 497.059 94.96C497.199 94.96 497.329 94.96 497.449 94.96C498.629 94.94 499.409 94.62 499.789 94C500.169 93.38 500.359 92.46 500.359 91.24C500.359 90.3 500.209 89.58 499.909 89.08C499.629 88.58 499.149 88.33 498.469 88.33C497.809 88.33 497.349 88.6 497.089 89.14C496.849 89.66 496.719 90.36 496.699 91.24C496.699 91.28 496.699 91.45 496.699 91.75C496.699 92.03 496.699 92.31 496.699 92.59H491.659V91.12C491.659 89.66 491.939 88.43 492.499 87.43C493.079 86.41 493.879 85.64 494.899 85.12C495.919 84.6 497.119 84.34 498.499 84.34C499.919 84.34 501.129 84.59 502.129 85.09C503.149 85.59 503.929 86.33 504.469 87.31C505.009 88.27 505.279 89.47 505.279 90.91C505.279 92.33 504.989 93.53 504.409 94.51C503.829 95.47 503.129 96.06 502.309 96.28C502.869 96.5 503.369 96.83 503.809 97.27C504.269 97.69 504.629 98.27 504.889 99.01C505.149 99.75 505.279 100.7 505.279 101.86C505.279 103.34 505.059 104.66 504.619 105.82C504.199 106.96 503.499 107.85 502.519 108.49C501.539 109.13 500.239 109.45 498.619 109.45ZM508.02 113.77V110.23C508.88 110.25 509.63 110.21 510.27 110.11C510.91 110.01 511.43 109.82 511.83 109.54C512.23 109.26 512.49 108.88 512.61 108.4C512.75 107.9 512.73 107.28 512.55 106.54L507.09 84.7H512.07L514.17 94.69L515.16 101.2L515.88 94.66L517.65 84.7H522.69L517.65 107.35C517.41 108.45 517.13 109.38 516.81 110.14C516.49 110.9 516.09 111.52 515.61 112C515.15 112.5 514.58 112.88 513.9 113.14C513.22 113.4 512.39 113.57 511.41 113.65C510.45 113.75 509.32 113.79 508.02 113.77ZM524.841 109V84.7H539.391V109H534.111V88.54H530.121V109H524.841ZM543.005 109V84.7H551.165C552.625 84.7 553.825 84.98 554.765 85.54C555.705 86.08 556.405 86.88 556.865 87.94C557.325 88.98 557.555 90.25 557.555 91.75C557.555 93.63 557.245 95.07 556.625 96.07C556.005 97.05 555.165 97.73 554.105 98.11C553.045 98.49 551.855 98.68 550.535 98.68H548.375V109H543.005ZM548.375 94.93H550.175C550.835 94.93 551.335 94.81 551.675 94.57C552.015 94.33 552.235 93.97 552.335 93.49C552.455 93.01 552.515 92.4 552.515 91.66C552.515 91.04 552.465 90.5 552.365 90.04C552.285 89.56 552.075 89.18 551.735 88.9C551.395 88.62 550.865 88.48 550.145 88.48H548.375V94.93ZM560.144 109V84.7H571.064V88.36H565.514V94.39H569.744V98.11H565.514V105.37H571.124V109H560.144ZM582.772 109V99.01C581.772 99.15 580.792 99.22 579.832 99.22C578.672 99.22 577.572 99 576.532 98.56C575.512 98.1 574.682 97.44 574.042 96.58C573.402 95.7 573.082 94.63 573.082 93.37V84.7H578.452V93.34C578.452 93.84 578.502 94.29 578.602 94.69C578.722 95.07 578.982 95.37 579.382 95.59C579.802 95.81 580.452 95.92 581.332 95.92C581.552 95.92 581.782 95.91 582.022 95.89C582.262 95.87 582.512 95.84 582.772 95.8V84.7H588.142V109H582.772ZM591.933 109V84.7H597.303V94.54H601.053V84.7H606.453V109H601.053V98.38H597.303V109H591.933ZM617.113 109.36C615.293 109.36 613.853 109.04 612.793 108.4C611.733 107.76 610.973 106.84 610.513 105.64C610.053 104.44 609.823 103.01 609.823 101.35V92.32C609.823 90.64 610.053 89.21 610.513 88.03C610.973 86.85 611.733 85.95 612.793 85.33C613.853 84.69 615.293 84.37 617.113 84.37C618.953 84.37 620.403 84.69 621.463 85.33C622.543 85.95 623.313 86.85 623.773 88.03C624.233 89.21 624.463 90.64 624.463 92.32V101.35C624.463 103.01 624.233 104.44 623.773 105.64C623.313 106.84 622.543 107.76 621.463 108.4C620.403 109.04 618.953 109.36 617.113 109.36ZM617.113 105.55C617.673 105.55 618.083 105.41 618.343 105.13C618.603 104.85 618.773 104.49 618.853 104.05C618.933 103.61 618.973 103.16 618.973 102.7V91C618.973 90.52 618.933 90.07 618.853 89.65C618.773 89.21 618.603 88.85 618.343 88.57C618.083 88.29 617.673 88.15 617.113 88.15C616.593 88.15 616.203 88.29 615.943 88.57C615.683 88.85 615.513 89.21 615.433 89.65C615.353 90.07 615.313 90.52 615.313 91V102.7C615.313 103.16 615.343 103.61 615.403 104.05C615.483 104.49 615.643 104.85 615.883 105.13C616.143 105.41 616.553 105.55 617.113 105.55ZM627.821 109V84.7H632.051V98.62L638.261 84.7H641.741V109H637.421V94.84L631.091 109H627.821ZM635.171 82.75C633.751 82.75 632.611 82.35 631.751 81.55C630.891 80.75 630.461 79.59 630.461 78.07H633.221C633.221 78.81 633.361 79.36 633.641 79.72C633.941 80.08 634.451 80.26 635.171 80.26C635.871 80.26 636.371 80.08 636.671 79.72C636.971 79.34 637.121 78.79 637.121 78.07H639.881C639.881 79.59 639.451 80.75 638.591 81.55C637.731 82.35 636.591 82.75 635.171 82.75ZM478.332 149V124.7H486.492C487.952 124.7 489.152 124.98 490.092 125.54C491.032 126.08 491.732 126.88 492.192 127.94C492.652 128.98 492.882 130.25 492.882 131.75C492.882 133.63 492.572 135.07 491.952 136.07C491.332 137.05 490.492 137.73 489.432 138.11C488.372 138.49 487.182 138.68 485.862 138.68H483.702V149H478.332ZM483.702 134.93H485.502C486.162 134.93 486.662 134.81 487.002 134.57C487.342 134.33 487.562 133.97 487.662 133.49C487.782 133.01 487.842 132.4 487.842 131.66C487.842 131.04 487.792 130.5 487.692 130.04C487.612 129.56 487.402 129.18 487.062 128.9C486.722 128.62 486.192 128.48 485.472 128.48H483.702V134.93ZM495.471 149V124.7H506.391V128.36H500.841V134.39H505.071V138.11H500.841V145.37H506.451V149H495.471ZM508.889 149V124.7H523.439V149H518.159V128.54H514.169V149H508.889ZM526.843 153.77V150.23C527.703 150.25 528.453 150.21 529.093 150.11C529.733 150.01 530.253 149.82 530.653 149.54C531.053 149.26 531.313 148.88 531.433 148.4C531.573 147.9 531.553 147.28 531.373 146.54L525.913 124.7H530.893L532.993 134.69L533.983 141.2L534.703 134.66L536.473 124.7H541.513L536.473 147.35C536.233 148.45 535.953 149.38 535.633 150.14C535.313 150.9 534.913 151.52 534.433 152C533.973 152.5 533.403 152.88 532.723 153.14C532.043 153.4 531.213 153.57 530.233 153.65C529.273 153.75 528.143 153.79 526.843 153.77ZM545.854 149V128.69H542.194V124.7H554.884V128.69H551.254V149H545.854ZM555.853 149L560.443 124.7H566.563L571.093 149H566.143L565.333 143.87H561.763L560.923 149H555.853ZM562.243 140.66H564.823L563.533 131.18L562.243 140.66ZM587.827 154.25L587.137 149H573.637V124.7H579.007V145.37H583.087V124.7H588.457V145.37H591.757V154.25H587.827ZM594.203 149V124.7H598.433V138.62L604.643 124.7H608.123V149H603.803V134.84L597.473 149H594.203ZM611.899 149V124.7H616.129V138.62L622.339 124.7H625.819V149H621.499V134.84L615.169 149H611.899Z" fill="#292929"/>
<path d="M96.85 143V125.3L125.95 80.6C128.15 77.3 130.2 74.1 132.1 71C134.1 67.9 135.7 64.75 136.9 61.55C138.2 58.35 138.85 55 138.85 51.5C138.85 48 138.15 45.4 136.75 43.7C135.35 42 133.45 41.15 131.05 41.15C128.35 41.15 126.25 41.9 124.75 43.4C123.25 44.9 122.2 46.9 121.6 49.4C121.1 51.9 120.85 54.7 120.85 57.8V63.8H96.55V57.35C96.55 50.15 97.7 43.75 100 38.15C102.3 32.45 105.95 28 110.95 24.8C115.95 21.5 122.5 19.85 130.6 19.85C141.5 19.85 149.7 22.7 155.2 28.4C160.8 34 163.6 41.85 163.6 51.95C163.6 56.85 162.8 61.4 161.2 65.6C159.7 69.8 157.65 73.9 155.05 77.9C152.55 81.8 149.85 85.9 146.95 90.2L124.75 123.35H160.3V143H96.85ZM206.001 145.25C197.101 145.25 190.351 143.7 185.751 140.6C181.251 137.4 178.201 132.95 176.601 127.25C175.001 121.55 174.201 114.95 174.201 107.45H198.351C198.351 112.05 198.601 115.8 199.101 118.7C199.601 121.6 200.501 123.7 201.801 125C203.201 126.2 205.151 126.75 207.651 126.65C210.251 126.55 212.101 125.5 213.201 123.5C214.301 121.5 214.951 118.65 215.151 114.95C215.451 111.15 215.601 106.6 215.601 101.3C215.601 97.3 215.351 93.75 214.851 90.65C214.451 87.55 213.551 85.1 212.151 83.3C210.851 81.4 208.851 80.45 206.151 80.45C203.651 80.45 201.601 81.35 200.001 83.15C198.401 84.95 197.251 87.75 196.551 91.55H174.951L177.201 21.5H233.901V42.5H197.301L195.951 67.55C196.951 66.15 198.851 64.95 201.651 63.95C204.451 62.85 207.451 62.15 210.651 61.85C216.851 61.15 222.051 62.3 226.251 65.3C230.551 68.2 233.751 72.65 235.851 78.65C238.051 84.65 239.151 92 239.151 100.7C239.151 107.2 238.751 113.2 237.951 118.7C237.151 124.1 235.601 128.8 233.301 132.8C231.001 136.7 227.651 139.75 223.251 141.95C218.851 144.15 213.101 145.25 206.001 145.25ZM245.119 143V124.1C248.519 124.1 251.269 123.9 253.369 123.5C255.469 123 257.119 121.9 258.319 120.2C259.519 118.5 260.469 115.9 261.169 112.4C261.869 108.9 262.419 104.2 262.819 98.3C263.319 92.4 263.919 84.9 264.619 75.8L268.519 21.5H332.869V143H306.169V42.05H292.819L290.419 80.9C289.719 90.9 289.019 99.55 288.319 106.85C287.619 114.05 286.469 120.1 284.869 125C283.369 129.9 281.069 133.75 277.969 136.55C274.969 139.25 270.819 141.1 265.519 142.1C260.219 143.1 253.419 143.4 245.119 143ZM351.507 143V21.5H406.107V39.8H378.357V69.95H399.507V88.55H378.357V124.85H406.407V143H351.507ZM429.546 143V41.45H411.246V21.5H474.696V41.45H456.546V143H429.546Z" fill="#FF5F1E"/>
<path d="M1.89 89V64.7H13.95V68.78H7.26V74.96H8.4C9.94 74.96 11.24 75.21 12.3 75.71C13.38 76.21 14.2 76.98 14.76 78.02C15.32 79.04 15.6 80.36 15.6 81.98C15.6 83.46 15.4 84.66 15 85.58C14.62 86.5 14.08 87.21 13.38 87.71C12.68 88.21 11.86 88.55 10.92 88.73C10 88.91 9 89 7.92 89H1.89ZM7.26 85.49H7.95C8.63 85.49 9.17 85.36 9.57 85.1C9.97 84.84 10.25 84.44 10.41 83.9C10.57 83.36 10.64 82.68 10.62 81.86C10.6 80.96 10.41 80.21 10.05 79.61C9.69 78.99 8.97 78.68 7.89 78.68H7.26V85.49ZM25.3713 89.36C23.5513 89.36 22.1113 89.04 21.0513 88.4C19.9913 87.76 19.2313 86.84 18.7713 85.64C18.3113 84.44 18.0813 83.01 18.0813 81.35V72.32C18.0813 70.64 18.3113 69.21 18.7713 68.03C19.2313 66.85 19.9913 65.95 21.0513 65.33C22.1113 64.69 23.5513 64.37 25.3713 64.37C27.2113 64.37 28.6613 64.69 29.7213 65.33C30.8013 65.95 31.5713 66.85 32.0313 68.03C32.4913 69.21 32.7213 70.64 32.7213 72.32V81.35C32.7213 83.01 32.4913 84.44 32.0313 85.64C31.5713 86.84 30.8013 87.76 29.7213 88.4C28.6613 89.04 27.2113 89.36 25.3713 89.36ZM25.3713 85.55C25.9313 85.55 26.3413 85.41 26.6013 85.13C26.8613 84.85 27.0313 84.49 27.1113 84.05C27.1913 83.61 27.2313 83.16 27.2313 82.7V71C27.2313 70.52 27.1913 70.07 27.1113 69.65C27.0313 69.21 26.8613 68.85 26.6013 68.57C26.3413 68.29 25.9313 68.15 25.3713 68.15C24.8513 68.15 24.4613 68.29 24.2013 68.57C23.9413 68.85 23.7713 69.21 23.6913 69.65C23.6113 70.07 23.5713 70.52 23.5713 71V82.7C23.5713 83.16 23.6013 83.61 23.6613 84.05C23.7413 84.49 23.9013 84.85 24.1413 85.13C24.4013 85.41 24.8113 85.55 25.3713 85.55ZM34.3995 89V85.22C35.0795 85.22 35.6295 85.18 36.0495 85.1C36.4695 85 36.7995 84.78 37.0395 84.44C37.2795 84.1 37.4695 83.58 37.6095 82.88C37.7495 82.18 37.8595 81.24 37.9395 80.06C38.0395 78.88 38.1595 77.38 38.2995 75.56L39.0795 64.7H51.9495V89H46.6095V68.81H43.9395L43.4595 76.58C43.3195 78.58 43.1795 80.31 43.0395 81.77C42.8995 83.21 42.6695 84.42 42.3495 85.4C42.0495 86.38 41.5895 87.15 40.9695 87.71C40.3695 88.25 39.5395 88.62 38.4795 88.82C37.4195 89.02 36.0595 89.08 34.3995 89ZM55.677 89V64.7H66.597V68.36H61.047V74.39H65.277V78.11H61.047V85.37H66.657V89H55.677ZM69.0949 89V64.7H80.0149V68.36H74.4649V74.39H78.6949V78.11H74.4649V85.37H80.0749V89H69.0949Z" fill="white"/>
</svg>

<svg width="662" height="155" fill="none" xmlns="http://www.w3.org/2000/svg"><path d="M462.499 109V84.7h12.06v4.08h-6.69v6.18h1.14c1.54 0 2.84.25 3.9.75 1.08.5 1.9 1.27 2.46 2.31.56 1.02.84 2.34.84 3.96 0 1.48-.2 2.68-.6 3.6-.38.92-.92 1.63-1.62 2.13-.7.5-1.52.84-2.46 1.02-.92.18-1.92.27-3 .27h-6.03Zm5.37-3.51h.69c.68 0 1.22-.13 1.62-.39.4-.26.68-.66.84-1.2.16-.54.23-1.22.21-2.04-.02-.9-.21-1.65-.57-2.25-.36-.62-1.08-.93-2.16-.93h-.63v6.81Zm11.152 3.51V84.7h10.92v3.66h-5.55v6.03h4.23v3.72h-4.23v7.26h5.61V109h-10.98Zm19.598.45c-1.7 0-3.04-.32-4.02-.96-.96-.64-1.65-1.53-2.07-2.67-.4-1.16-.6-2.49-.6-3.99v-.87h5.04V101.89c0 1.2.12 2.06.36 2.58.24.5.7.75 1.38.75.46 0 .8-.12 1.02-.36.24-.24.4-.59.48-1.05.1-.48.15-1.08.15-1.8 0-1.22-.18-2.14-.54-2.76-.36-.64-1.11-.97-2.25-.99-.02-.02-.11-.03-.27-.03h-1.08v-3.27h1.23c1.18-.02 1.96-.34 2.34-.96.38-.62.57-1.54.57-2.76 0-.94-.15-1.66-.45-2.16-.28-.5-.76-.75-1.44-.75-.66 0-1.12.27-1.38.81-.24.52-.37 1.22-.39 2.1v1.35h-5.04v-1.47c0-1.46.28-2.69.84-3.69a5.683 5.683 0 0 1 2.4-2.31c1.02-.52 2.22-.78 3.6-.78 1.42 0 2.63.25 3.63.75 1.02.5 1.8 1.24 2.34 2.22.54.96.81 2.16.81 3.6 0 1.42-.29 2.62-.87 3.6-.58.96-1.28 1.55-2.1 1.77.56.22 1.06.55 1.5.99.46.42.82 1 1.08 1.74.26.74.39 1.69.39 2.85 0 1.48-.22 2.8-.66 3.96-.42 1.14-1.12 2.03-2.1 2.67-.98.64-2.28.96-3.9.96Zm9.401 4.32v-3.54c.86.02 1.61-.02 2.25-.12.64-.1 1.16-.29 1.56-.57.4-.28.66-.66.78-1.14.14-.5.12-1.12-.06-1.86l-5.46-21.84h4.98l2.1 9.99.99 6.51.72-6.54 1.77-9.96h5.04l-5.04 22.65c-.24 1.1-.52 2.03-.84 2.79-.32.76-.72 1.38-1.2 1.86-.46.5-1.03.88-1.71 1.14-.68.26-1.51.43-2.49.51-.96.1-2.09.14-3.39.12Zm16.821-4.77V84.7h14.55V109h-5.28V88.54h-3.99V109h-5.28Zm18.164 0V84.7h8.16c1.46 0 2.66.28 3.6.84.94.54 1.64 1.34 2.1 2.4.46 1.04.69 2.31.69 3.81 0 1.88-.31 3.32-.93 4.32-.62.98-1.46 1.66-2.52 2.04-1.06.38-2.25.57-3.57.57h-2.16V109h-5.37Zm5.37-14.07h1.8c.66 0 1.16-.12 1.5-.36.34-.24.56-.6.66-1.08.12-.48.18-1.09.18-1.83 0-.62-.05-1.16-.15-1.62-.08-.48-.29-.86-.63-1.14-.34-.28-.87-.42-1.59-.42h-1.77v6.45ZM560.144 109V84.7h10.92v3.66h-5.55v6.03h4.23v3.72h-4.23v7.26h5.61V109h-10.98Zm22.628 0v-9.99c-1 .14-1.98.21-2.94.21-1.16 0-2.26-.22-3.3-.66a6.24 6.24 0 0 1-2.49-1.98c-.64-.88-.96-1.95-.96-3.21V84.7h5.37v8.64c0 .5.05.95.15 1.35.12.38.38.68.78.9.42.22 1.07.33 1.95.33.22 0 .45-.01.69-.03.24-.02.49-.05.75-.09V84.7h5.37V109h-5.37Zm9.161 0V84.7h5.37v9.84h3.75V84.7h5.4V109h-5.4V98.38h-3.75V109h-5.37Zm25.18.36c-1.82 0-3.26-.32-4.32-.96-1.06-.64-1.82-1.56-2.28-2.76-.46-1.2-.69-2.63-.69-4.29v-9.03c0-1.68.23-3.11.69-4.29.46-1.18 1.22-2.08 2.28-2.7 1.06-.64 2.5-.96 4.32-.96 1.84 0 3.29.32 4.35.96 1.08.62 1.85 1.52 2.31 2.7.46 1.18.69 2.61.69 4.29v9.03c0 1.66-.23 3.09-.69 4.29-.46 1.2-1.23 2.12-2.31 2.76-1.06.64-2.51.96-4.35.96Zm0-3.81c.56 0 .97-.14 1.23-.42.26-.28.43-.64.51-1.08.08-.44.12-.89.12-1.35V91c0-.48-.04-.93-.12-1.35-.08-.44-.25-.8-.51-1.08s-.67-.42-1.23-.42c-.52 0-.91.14-1.17.42-.26.28-.43.64-.51 1.08-.08.42-.12.87-.12 1.35v11.7c0 .46.03.91.09 1.35.08.44.24.8.48 1.08.26.28.67.42 1.23.42Zm10.708 3.45V84.7h4.23v13.92l6.21-13.92h3.48V109h-4.32V94.84l-6.33 14.16h-3.27Zm7.35-26.25c-1.42 0-2.56-.4-3.42-1.2-.86-.8-1.29-1.96-1.29-3.48h2.76c0 .74.14 1.29.42 1.65.3.36.81.54 1.53.54.7 0 1.2-.18 1.5-.54.3-.38.45-.93.45-1.65h2.76c0 1.52-.43 2.68-1.29 3.48-.86.8-2 1.2-3.42 1.2ZM478.332 149v-24.3h8.16c1.46 0 2.66.28 3.6.84.94.54 1.64 1.34 2.1 2.4.46 1.04.69 2.31.69 3.81 0 1.88-.31 3.32-.93 4.32-.62.98-1.46 1.66-2.52 2.04-1.06.38-2.25.57-3.57.57h-2.16V149h-5.37Zm5.37-14.07h1.8c.66 0 1.16-.12 1.5-.36.34-.24.56-.6.66-1.08.12-.48.18-1.09.18-1.83 0-.62-.05-1.16-.15-1.62-.08-.48-.29-.86-.63-1.14-.34-.28-.87-.42-1.59-.42h-1.77v6.45ZM495.471 149v-24.3h10.92v3.66h-5.55v6.03h4.23v3.72h-4.23v7.26h5.61V149h-10.98Zm13.418 0v-24.3h14.55V149h-5.28v-20.46h-3.99V149h-5.28Zm17.954 4.77v-3.54c.86.02 1.61-.02 2.25-.12.64-.1 1.16-.29 1.56-.57.4-.28.66-.66.78-1.14.14-.5.12-1.12-.06-1.86l-5.46-21.84h4.98l2.1 9.99.99 6.51.72-6.54 1.77-9.96h5.04l-5.04 22.65c-.24 1.1-.52 2.03-.84 2.79-.32.76-.72 1.38-1.2 1.86-.46.5-1.03.88-1.71 1.14-.68.26-1.51.43-2.49.51-.96.1-2.09.14-3.39.12Zm19.011-4.77v-20.31h-3.66v-3.99h12.69v3.99h-3.63V149h-5.4Zm9.999 0 4.59-24.3h6.12l4.53 24.3h-4.95l-.81-5.13h-3.57l-.84 5.13h-5.07Zm6.39-8.34h2.58l-1.29-9.48-1.29 9.48Zm25.584 13.59-.69-5.25h-13.5v-24.3h5.37v20.67h4.08V124.7h5.37v20.67h3.3v8.88h-3.93Zm6.376-5.25v-24.3h4.23v13.92l6.21-13.92h3.48V149h-4.32v-14.16l-6.33 14.16h-3.27Zm17.696 0v-24.3h4.23v13.92l6.21-13.92h3.48V149h-4.32v-14.16l-6.33 14.16h-3.27Z" fill="#292929"/><path d="M96.85 143v-17.7l29.1-44.7c2.2-3.3 4.25-6.5 6.15-9.6 2-3.1 3.6-6.25 4.8-9.45 1.3-3.2 1.95-6.55 1.95-10.05 0-3.5-.7-6.1-2.1-7.8-1.4-1.7-3.3-2.55-5.7-2.55-2.7 0-4.8.75-6.3 2.25s-2.55 3.5-3.15 6c-.5 2.5-.75 5.3-.75 8.4v6h-24.3v-6.45c0-7.2 1.15-13.6 3.45-19.2 2.3-5.7 5.95-10.15 10.95-13.35 5-3.3 11.55-4.95 19.65-4.95 10.9 0 19.1 2.85 24.6 8.55 5.6 5.6 8.4 13.45 8.4 23.55 0 4.9-.8 9.45-2.4 13.65-1.5 4.2-3.55 8.3-6.15 12.3-2.5 3.9-5.2 8-8.1 12.3l-22.2 33.15h35.55V143H96.85Zm109.151 2.25c-8.9 0-15.65-1.55-20.25-4.65-4.5-3.2-7.55-7.65-9.15-13.35-1.6-5.7-2.4-12.3-2.4-19.8h24.15c0 4.6.25 8.35.75 11.25.5 2.9 1.4 5 2.7 6.3 1.4 1.2 3.35 1.75 5.85 1.65 2.6-.1 4.45-1.15 5.55-3.15 1.1-2 1.75-4.85 1.95-8.55.3-3.8.45-8.35.45-13.65 0-4-.25-7.55-.75-10.65-.4-3.1-1.3-5.55-2.7-7.35-1.3-1.9-3.3-2.85-6-2.85-2.5 0-4.55.9-6.15 2.7-1.6 1.8-2.75 4.6-3.45 8.4h-21.6l2.25-70.05h56.7v21h-36.6l-1.35 25.05c1-1.4 2.9-2.6 5.7-3.6 2.8-1.1 5.8-1.8 9-2.1 6.2-.7 11.4.45 15.6 3.45 4.3 2.9 7.5 7.35 9.6 13.35 2.2 6 3.3 13.35 3.3 22.05 0 6.5-.4 12.5-1.2 18-.8 5.4-2.35 10.1-4.65 14.1-2.3 3.9-5.65 6.95-10.05 9.15s-10.15 3.3-17.25 3.3Zm39.118-2.25v-18.9c3.4 0 6.15-.2 8.25-.6 2.1-.5 3.75-1.6 4.95-3.3 1.2-1.7 2.15-4.3 2.85-7.8.7-3.5 1.25-8.2 1.65-14.1.5-5.9 1.1-13.4 1.8-22.5l3.9-54.3h64.35V143h-26.7V42.05h-13.35l-2.4 38.85c-.7 10-1.4 18.65-2.1 25.95-.7 7.2-1.85 13.25-3.45 18.15-1.5 4.9-3.8 8.75-6.9 11.55-3 2.7-7.15 4.55-12.45 5.55-5.3 1-12.1 1.3-20.4.9Zm106.388 0V21.5h54.6v18.3h-27.75v30.15h21.15v18.6h-21.15v36.3h28.05V143h-54.9Zm78.039 0V41.45h-18.3V21.5h63.45v19.95h-18.15V143h-27Z" fill="#FF5F1E"/><path d="M1.89 89V64.7h12.06v4.08H7.26v6.18H8.4c1.54 0 2.84.25 3.9.75 1.08.5 1.9 1.27 2.46 2.31.56 1.02.84 2.34.84 3.96 0 1.48-.2 2.68-.6 3.6-.38.92-.92 1.63-1.62 2.13-.7.5-1.52.84-2.46 1.02-.92.18-1.92.27-3 .27H1.89Zm5.37-3.51h.69c.68 0 1.22-.13 1.62-.39.4-.26.68-.66.84-1.2.16-.54.23-1.22.21-2.04-.02-.9-.21-1.65-.57-2.25-.36-.62-1.08-.93-2.16-.93h-.63v6.81Zm18.111 3.87c-1.82 0-3.26-.32-4.32-.96-1.06-.64-1.82-1.56-2.28-2.76-.46-1.2-.69-2.63-.69-4.29v-9.03c0-1.68.23-3.11.69-4.29.46-1.18 1.22-2.08 2.28-2.7 1.06-.64 2.5-.96 4.32-.96 1.84 0 3.29.32 4.35.96 1.08.62 1.85 1.52 2.31 2.7.46 1.18.69 2.61.69 4.29v9.03c0 1.66-.23 3.09-.69 4.29-.46 1.2-1.23 2.12-2.31 2.76-1.06.64-2.51.96-4.35.96Zm0-3.81c.56 0 .97-.14 1.23-.42.26-.28.43-.64.51-1.08.08-.44.12-.89.12-1.35V71c0-.48-.04-.93-.12-1.35-.08-.44-.25-.8-.51-1.08s-.67-.42-1.23-.42c-.52 0-.91.14-1.17.42-.26.28-.43.64-.51 1.08-.08.42-.12.87-.12 1.35v11.7c0 .46.03.91.09 1.35.08.44.24.8.48 1.08.26.28.67.42 1.23.42ZM34.4 89v-3.78c.68 0 1.23-.04 1.65-.12.42-.1.75-.32.99-.66s.43-.86.57-1.56c.14-.7.25-1.64.33-2.82.1-1.18.22-2.68.36-4.5l.78-10.86h12.87V89h-5.34V68.81h-2.67l-.48 7.77c-.14 2-.28 3.73-.42 5.19-.14 1.44-.37 2.65-.69 3.63-.3.98-.76 1.75-1.38 2.31-.6.54-1.43.91-2.49 1.11-1.06.2-2.42.26-4.08.18Zm21.277 0V64.7h10.92v3.66h-5.55v6.03h4.23v3.72h-4.23v7.26h5.61V89h-10.98Zm13.418 0V64.7h10.92v3.66h-5.55v6.03h4.23v3.72h-4.23v7.26h5.61V89h-10.98Z" fill="#fff"/></svg>
